public/static/img/common/link.svg

<svg width="30" height="30" viewBox="0 0 30 30" fill="none" xmlns="http://www.w3.org/2000/svg">
<g id="Frame">
<path id="Vector" d="M22.9544 19.4193L21.1866 17.6515L22.9544 15.8838C25.3951 13.443 25.3951 9.48572 22.9544 7.04495C20.5136 4.60416 16.5563 4.60416 14.1155 7.04495L12.3477 8.81271L10.58 7.04495L12.3477 5.27717C15.7649 1.86008 21.305 1.86008 24.7221 5.27717C28.1393 8.69426 28.1393 14.2344 24.7221 17.6515L22.9544 19.4193ZM19.4188 22.9549L17.651 24.7226C14.234 28.1396 8.69377 28.1396 5.27668 24.7226C1.8596 21.3055 1.8596 15.7653 5.27668 12.3482L7.04445 10.5805L8.81222 12.3482L7.04445 14.116C4.60367 16.5568 4.60367 20.514 7.04445 22.9549C9.48522 25.3956 13.4425 25.3956 15.8833 22.9549L17.651 21.187L19.4188 22.9549ZM18.5349 9.6966L20.3028 11.4644L11.4639 20.3031L9.6961 18.5354L18.5349 9.6966Z" fill="#00A609"/>
</g>
</svg>

<svg width="30" height="30" fill="none" xmlns="http://www.w3.org/2000/svg"><path d="m22.954 19.42-1.767-1.769 1.767-1.767a6.25 6.25 0 0 0-8.838-8.84l-1.768 1.769-1.768-1.768 1.768-1.768a8.75 8.75 0 0 1 12.374 12.374l-1.768 1.768Zm-3.535 3.535-1.768 1.768A8.75 8.75 0 0 1 5.277 12.348l1.767-1.768 1.768 1.768-1.768 1.768a6.25 6.25 0 0 0 8.84 8.839l1.767-1.768 1.768 1.768Zm-.884-13.258 1.768 1.767-8.84 8.84-1.767-1.769 8.839-8.838Z" fill="#00A609"/></svg>
